images/Ecosystem/noise.svg

<svg xmlns="http://www.w3.org/2000/svg" viewBox="0 0 33 33" class="w-full fill-current"><path fill-rule="evenodd" clip-rule="evenodd" fill="#777" d="M32.4999 0.5L30.8545 0.906047L30.8534 2.21807L32.4999 1.82402V0.5ZM30.3517 1.07221L27.9194 1.66436L27.9178 3.57773L30.3517 3.00307V1.07221ZM23.5177 2.71888L27.3094 1.78836V4.82256L23.5153 5.7256L23.5177 2.71888ZM23.5177 8.07156L27.3094 7.15795V10.137L23.5153 11.0236L23.5177 8.07156ZM28.2746 12.0969L25.7707 12.706L25.7691 14.674L28.2746 14.0829V12.0969ZM27.9194 6.46103L30.3517 5.86888V7.79974L27.9178 8.3744L27.9194 6.46103ZM27.1287 5.22446L25.4832 5.63051L25.4822 6.94253L27.1287 6.54848V5.22446ZM28.3478 4.46893L29.9933 4.07981V5.34865L28.3468 5.72628L28.3478 4.46893ZM24.053 13.37L25.1976 13.0993V13.982L24.0522 14.2447L24.053 13.37ZM26.9865 10.6656L25.8418 10.9362L25.8411 11.8109L26.9865 11.5482V10.6656ZM23.5514 11.6991L25.1968 11.31V12.5788L23.5503 12.9564L23.5514 11.6991ZM0.5 8.22741V32.4988L6.87117 31.0551V15.6422L16.3962 28.6946L22.7633 27.1907L22.7673 2.93373L16.3962 4.43761L16.3811 19.7937L6.85691 6.71264L0.5 8.22741Z"/></svg>

<svg xmlns="http://www.w3.org/2000/svg" viewBox="0 0 33 33" xmlns:v="https://vecta.io/nano"><path fill-rule="evenodd" fill="#777" d="M32.5.5l-1.645.406-.001 1.312 1.646-.394V.5zm-2.148.572l-2.432.592-.002 1.913 2.434-.575V1.072zm-6.834 1.647l3.792-.931v3.034l-3.794.903.002-3.007zm0 5.353l3.792-.914v2.979l-3.794.887.002-2.952zm4.757 4.025l-2.504.609-.002 1.968 2.505-.591v-1.986zm-.355-5.636l2.432-.592V7.8l-2.434.575.002-1.913zm-.791-1.237l-1.645.406-.001 1.312 1.646-.394V5.224zm1.219-.756l1.646-.389v1.269l-1.646.378.001-1.257zm-4.295 8.901l1.145-.271v.883l-1.145.263.001-.875zm2.933-2.704l-1.145.271-.001.875 1.145-.263v-.883zm-3.435 1.034l1.645-.389v1.269l-1.646.378.001-1.257zM.5 8.227v24.271l6.371-1.444V15.642l9.525 13.052 6.367-1.504.004-24.257-6.371 1.504-.015 15.356L6.857 6.713.5 8.227z"/></svg>
